Papirus/22x22/panel/stremio-tray.svg

<?xml version="1.0" encoding="UTF-8" standalone="no"?>
<svg xmlns:dc="http://purl.org/dc/elements/1.1/" xmlns:cc="http://creativecommons.org/ns#" xmlns:rdf="http://www.w3.org/1999/02/22-rdf-syntax-ns#" xmlns:svg="http://www.w3.org/2000/svg" xmlns="http://www.w3.org/2000/svg" version="1.1" id="svg4276" viewBox="0 0 22 22" height="22" width="22">
    <metadata id="metadata4281">
        <rdf:RDF>
            <cc:Work rdf:about="">
                <dc:format>
                    image/svg+xml
                </dc:format>
                <dc:type rdf:resource="http://purl.org/dc/dcmitype/StillImage"/>
                <dc:title/>
            </cc:Work>
        </rdf:RDF>
    </metadata>
    <g transform="translate(0,-1030.3622)" id="layer1">
        <path id="path4137" transform="translate(0,1030.3622)" d="M 11 3 C 10.740801 3 10.481814 3.1002281 10.283203 3.2988281 L 3.2988281 10.283203 C 2.9016045 10.680403 2.9016045 11.319597 3.2988281 11.716797 L 10.283203 18.701172 C 10.680426 19.098372 11.319574 19.098372 11.716797 18.701172 L 18.701172 11.716797 C 19.098396 11.319597 19.098396 10.680403 18.701172 10.283203 L 11.716797 3.2988281 C 11.518186 3.1002281 11.259199 3 11 3 z M 10.892578 7 C 11.623561 7 12.19349 7.1761437 12.601562 7.5273438 C 13.013184 7.8787438 13.21875 8.3462406 13.21875 8.9316406 C 13.21875 9.4214406 13.074177 9.8321094 12.783203 10.162109 C 12.49223 10.492109 12.076475 10.702722 11.537109 10.794922 L 11.537109 10.826172 C 12.818103 10.992972 13.458984 11.611588 13.458984 12.679688 C 13.458984 13.399987 13.214297 13.967613 12.724609 14.382812 C 12.234922 14.794412 11.527712 15 10.601562 15 C 9.7428363 15 9.0555421 14.860378 8.5410156 14.580078 L 8.5410156 13.673828 C 9.193932 14.014528 9.8739347 14.185547 10.580078 14.185547 C 11.836232 14.185547 12.462891 13.673937 12.462891 12.648438 C 12.462891 11.732937 11.78751 11.273438 10.435547 11.273438 L 9.7285156 11.273438 L 9.7285156 10.470703 L 10.435547 10.470703 C 11.0033 10.470703 11.443595 10.336106 11.755859 10.066406 C 12.068123 9.7967062 12.224609 9.4395938 12.224609 8.9960938 C 12.224609 8.6341937 12.102623 8.3480719 11.861328 8.1386719 C 11.620033 7.9257719 11.297103 7.8203125 10.892578 7.8203125 C 10.260953 7.8203125 9.6515441 8.0335906 9.0625 8.4628906 L 8.5722656 7.7988281 C 9.2358274 7.2666281 10.009012 7 10.892578 7 z " style="opacity:1000002;fill:#ffffff;fill-opacity:1;stroke:none;stroke-width:2;stroke-linecap:round;stroke-linejoin:round;stroke-miterlimit:4;stroke-dasharray:none;stroke-opacity:1"/>
    </g>
</svg>

<?xml version="1.0" encoding="UTF-8" standalone="no"?>
<svg id="svg4276" xmlns:rdf="http://www.w3.org/1999/02/22-rdf-syntax-ns#" xmlns="http://www.w3.org/2000/svg" viewBox="0 0 22 22" width="22" version="1.1" xmlns:cc="http://creativecommons.org/ns#" height="22" xmlns:dc="http://purl.org/dc/elements/1.1/">
 <metadata id="metadata4281">
  <rdf:RDF>
   <cc:Work rdf:about="">
    <dc:format>image/svg+xml</dc:format>
    <dc:type rdf:resource="http://purl.org/dc/dcmitype/StillImage"/>
    <dc:title/>
   </cc:Work>
  </rdf:RDF>
 </metadata>
 <g id="layer1" transform="translate(0 -1030.4)">
  <path id="path4137" opacity="1e6" d="m11 3c-0.259 0-0.518 0.1002-0.717 0.2988l-6.9842 6.9842c-0.3972 0.397-0.3972 1.037 0 1.434l6.9842 6.984c0.397 0.397 1.037 0.397 1.434 0l6.984-6.984c0.397-0.397 0.397-1.037 0-1.434l-6.984-6.9842c-0.199-0.1986-0.458-0.2988-0.717-0.2988zm-0.107 4c0.731 0 1.3 0.1761 1.709 0.5273 0.411 0.3514 0.617 0.8189 0.617 1.4043 0 0.4898-0.145 0.9005-0.436 1.2304-0.291 0.33-0.707 0.541-1.246 0.633v0.031c1.281 0.167 1.922 0.786 1.922 1.854 0 0.72-0.245 1.288-0.734 1.703-0.49 0.411-1.197 0.617-2.123 0.617-0.8592 0-1.5465-0.14-2.061-0.42v-0.906c0.6529 0.341 1.3329 0.512 2.039 0.512 1.256 0 1.883-0.512 1.883-1.538 0-0.915-0.675-1.375-2.027-1.375h-0.7075v-0.802h0.7075c0.567 0 1.008-0.135 1.32-0.405 0.312-0.2693 0.469-0.6264 0.469-1.0699 0-0.3619-0.122-0.648-0.364-0.8574-0.241-0.2129-0.564-0.3184-0.968-0.3184-0.632 0-1.2415 0.2133-1.8305 0.6426l-0.4902-0.6641c0.6635-0.5322 1.4367-0.7988 2.3207-0.7988z" transform="translate(0 1030.4)" fill="#fff"/>
 </g>
</svg>
